public/images/modals/export/success-dark.svg

<svg width="208" height="105" viewBox="0 0 208 105" fill="none" xmlns="http://www.w3.org/2000/svg">
<path d="M147.009 52.0586C147.009 75.8068 127.757 95.0586 104.009 95.0586C99.1073 95.0586 94.3974 94.2385 90.0088 92.7281M145.84 42.0586C145.349 39.9971 144.709 37.9931 143.934 36.0586M139.693 28.0586C131.969 16.5971 118.869 9.05859 104.009 9.05859C80.2605 9.05859 61.0088 28.3104 61.0088 52.0586C61.0088 60.5181 63.4517 68.4071 67.6705 75.0586M81.0088 88.3969C77.967 86.4676 75.184 84.1669 72.7237 81.5586" stroke="#3D444D" stroke-width="2" stroke-linecap="round"/>
<circle cx="103.509" cy="52.5586" r="31.5" stroke="#289548" stroke-width="2"/>
<circle cx="103.493" cy="52.5" r="27.5" fill="#26372B"/>
<path d="M112.009 45.6679L115.696 42.0586L121.009 47.2629L104.509 63.41L99.7586 68.0586L97.7156 66.0586M107.2 50.375L99.7585 57.6595L92.3216 50.375L87.0088 55.5766L92.0977 60.5586M95.5088 63.8981L94.1406 62.5586" stroke="#289548" stroke-width="2" stroke-linecap="round" stroke-linejoin="round"/>
<path d="M30.5609 16.0048H32.5609V9.00478L39.5609 9.00478V7.00478L32.5609 7.00478V0.00478334L30.5609 0.00478317V7.00478L23.5609 7.00478V9.00478L30.5609 9.00478L30.5609 16.0048Z" fill="#3D444D"/>
<path d="M73.5609 104.005H75.5609V97.0048H82.5609L82.561 95.0048H75.5609V88.0048H73.5609V95.0048H66.5609V97.0048H73.5609V104.005Z" fill="#3D444D"/>
<path d="M7.55958 104.003H9.55958L9.55958 97.003H16.5596V95.003H9.55958L9.55958 88.003H7.55958L7.55958 95.003H0.559571L0.55957 97.003H7.55958L7.55958 104.003Z" fill="#3D444D"/>
<path d="M29.5596 104.003L31.5596 104.003L31.5596 97.003H38.5596V95.003H31.5596L31.5596 88.003L29.5596 88.003L29.5596 95.003H22.5596V97.003H29.5596L29.5596 104.003Z" fill="#3D444D"/>
<path d="M29.5596 82.0031L31.5596 82.0031L31.5596 75.0031H38.5596V73.0031H31.5596L31.5596 66.0031L29.5596 66.0031L29.5596 73.0031H22.5596V75.0031H29.5596L29.5596 82.0031Z" fill="#3D444D"/>
<path d="M52.0596 82.0031H54.0596V75.0031H61.0597V73.0031H54.0596V66.0031H52.0596V73.0031H45.0596V75.0031H52.0596V82.0031Z" fill="#3D444D"/>
<path d="M52.0593 16.0029H54.0593V9.00291H61.0593V7.00291L54.0593 7.00291V0.00291414L52.0593 0.00291397V7.00291L45.0593 7.00291V9.00291H52.0593V16.0029Z" fill="#3D444D"/>
<path d="M52.0595 38.0029H54.0595V31.0029L61.0595 31.0029V29.0029H54.0595V22.0029H52.0595V29.0029L45.0595 29.0029V31.0029L52.0595 31.0029V38.0029Z" fill="#3D444D"/>
<path d="M73.5595 16.0029H75.5595L75.5595 9.00294L82.5595 9.00294V7.00294L75.5595 7.00294V0.00294269L73.5595 0.00294234V7.00294L66.5595 7.00294V9.00294L73.5595 9.00294V16.0029Z" fill="#3D444D"/>
<path d="M177.442 16.0001H175.442V9.00013L168.442 9.00013V7.00013L175.442 7.00013V0.00013123L177.442 0.000131405V7.00013L184.442 7.00013V9.00013L177.442 9.00013V16.0001Z" fill="#3D444D"/>
<path d="M134.441 104H132.441V97.0001H125.441V95.0001H132.441V88.0001H134.441V95.0001H141.441V97.0001H134.441V104Z" fill="#3D444D"/>
<path d="M200.44 104H198.44V97.0001H191.44V95.0001H198.44V88.0001H200.44V95.0001H207.44V97.0001H200.44V104Z" fill="#3D444D"/>
<path d="M178.44 104H176.44V97.0001H169.44V95.0001H176.44V88.0001H178.44V95.0001H185.44V97.0001H178.44V104Z" fill="#3D444D"/>
<path d="M178.44 82.0002H176.44V75.0002H169.44V73.0002H176.44V66.0002H178.44V73.0002H185.44V75.0002H178.44V82.0002Z" fill="#3D444D"/>
<path d="M155.94 82.0002H153.94V75.0002H146.94V73.0002H153.94V66.0002H155.94V73.0002H162.94V75.0002H155.94V82.0002Z" fill="#3D444D"/>
<path d="M155.94 16H153.94V9L146.94 9V7L153.94 7V0L155.94 1.78814e-07V7L162.94 7V9L155.94 9V16Z" fill="#3D444D"/>
<path d="M155.94 38H153.94V31H146.94V29L153.94 29V22H155.94V29H162.94V31H155.94V38Z" fill="#3D444D"/>
<path d="M134.44 16H132.44V9.00002L125.44 9.00002V7.00002L132.44 7.00002V2.47955e-05H134.44V7.00002H141.44V9.00002H134.44V16Z" fill="#3D444D"/>
</svg>

<svg width="208" height="105" fill="none" xmlns="http://www.w3.org/2000/svg"><path d="M147.009 52.059c0 23.748-19.252 43-43 43-4.902 0-9.612-.82-14-2.33m55.831-50.67a42.794 42.794 0 0 0-1.906-6m-4.241-8c-7.724-11.462-20.824-19-35.684-19-23.749 0-43 19.251-43 43 0 8.46 2.443 16.348 6.662 23m13.338 13.338a43.206 43.206 0 0 1-8.285-6.838" stroke="#3D444D" stroke-width="2" stroke-linecap="round"/><circle cx="103.509" cy="52.559" r="31.5" stroke="#289548" stroke-width="2"/><circle cx="103.493" cy="52.5" r="27.5" fill="#26372B"/><path d="m112.009 45.668 3.687-3.61 5.313 5.205-16.5 16.147-4.75 4.649-2.043-2m9.484-15.684-7.442 7.285-7.436-7.285-5.313 5.202 5.089 4.982m3.41 3.34-1.367-1.34" stroke="#289548" stroke-width="2" stroke-linecap="round" stroke-linejoin="round"/><path d="M30.56 16.005h2v-7h7v-2h-7v-7h-2v7h-7v2h7v7ZM73.56 104.005h2v-7h7l.001-2h-7v-7h-2v7h-7v2h7v7ZM7.56 104.003h2v-7h7v-2h-7v-7h-2v7h-7v2h7v7ZM29.56 104.003h2v-7h7v-2h-7v-7h-2v7h-7v2h7v7ZM29.56 82.003h2v-7h7v-2h-7v-7h-2v7h-7v2h7v7ZM52.06 82.003h2v-7h7v-2h-7v-7h-2v7h-7v2h7v7ZM52.06 16.003h2v-7h7v-2h-7v-7h-2v7h-7v2h7v7ZM52.06 38.003h2v-7h7v-2h-7v-7h-2v7h-7v2h7v7ZM73.56 16.003h2v-7h7v-2h-7v-7h-2v7h-7v2h7v7ZM177.442 16h-2V9h-7V7h7V0h2v7h7v2h-7v7ZM134.441 104h-2v-7h-7v-2h7v-7h2v7h7v2h-7v7ZM200.44 104h-2v-7h-7v-2h7v-7h2v7h7v2h-7v7ZM178.44 104h-2v-7h-7v-2h7v-7h2v7h7v2h-7v7ZM178.44 82h-2v-7h-7v-2h7v-7h2v7h7v2h-7v7ZM155.94 82h-2v-7h-7v-2h7v-7h2v7h7v2h-7v7ZM155.94 16h-2V9h-7V7h7V0h2v7h7v2h-7v7ZM155.94 38h-2v-7h-7v-2h7v-7h2v7h7v2h-7v7ZM134.44 16h-2V9h-7V7h7V0h2v7h7v2h-7v7Z" fill="#3D444D"/></svg>
